!!!OTL: DER SOMMER GEHT UMMI
!!!ARE: Europa, Mitteleuropa, Deutschland, Bayern, Braunau, Alt - Oettingen
!!!ARD: Europa%Mitteleuropa%Deutschland@Bayern#Braunau:Alt-Oettingen!?
!!!ARL: 48.95/10.60!?
!!!SCT: E0724
!!!YEM: Copyright 1995, estate of Helmut Schaffrath.
**kern
*ICvox
*Ivox
*M3/4
*k[f#]
*G:
{8dd
8cc
=1
4b
4a
4b
=2
4cc
8cc
8b
4a}
=3
{4cc
4b
4cc
=4
4dd
8dd
8cc
8b}
{8cc
=5
4dd
4cc#
4dd
=6
4ee
8ee
8a
8a}
{8b
=7
4cc
8cc
8f#
4f#
=8
4g
4r}
==
!!!AGN: Liebes - Lied, Leid, Klage
!!!ONB: ESAC (Essen Associative Code) Database: ERK2
!!!AMT: simple triple
!!!AIN: vox
!!!EED: Helmut Schaffrath
!!!EEV: 1.0
*-
